!!!OTL: Aéire cinn b&oacute; rúin, S. 36
!!!id: I0535
**kern
*clefG2
*k[b-e-a-d-]
*A-:
{8e-
=1
4a-
8a-
8a-
8g
8e-
=2
4g
8a-
4b-}
=3
{8dd-
=4
4cc
8a-
4b-
8g
=5
4.a-}
4r
=6
{16e-
16e-
=7
4a-
8a-
8a-
8g
8e-
=8
4g
8a-
4b-}
=9
{8dd-
=10
4cc
8a-
4b-
8g
=11
4.a-}
4r
=12
{8cc
=13
4ee-
8ee-
4ee-
8dd-
=14
4cc
8dd-
4b-}
=15
{8dd-
=16
8cc
8cc
8a-
4b-
8a-
=17
4g
8e-
4e-}
=18
{8g
=19
4a-
8a-
8a-
8g
8e-
=20
4g
8a-
8b-
8cc}
=21
{8dd-
=22
4g
8a-
8b-
8cc
8dd-
=23
4cc
8a-
4b-
8g
=24
4.a-}
4r
==
*-
!!!minrhy: 16
!!!meters: 6/8 ]  ZZ[8
!!!cut: Aéire cinn b&oacute; rúin, S. 36
!!!reg: Irland
!!!trd: O'SULLIVAN, Donal: Song of the Irish
!!!rhy1: X_  X__X_X_X_X_  X__X_X__   (x2)
!!!rhy2: X_  X__X_X__X_  X__.0_
!!!key: I0535  16 Ab 6/8 ]  ZZ[8
!!!mod: SECHSTONSKALA DUR ?]  AMBITUS[8
!!!kad: 21212-531
!!!akz: 11-72_321_11-72_321_5532_32-7-5_11-72_-72321_
!!!fot: 'a__b__av_b__c__bw_av_d__
!!!for: 'a__b__av_b__bw_c__aw_aw_
!!!fok: '~a_\__~a_\__^d_\__Va_Sd_
!! PHRAS[AUFTAKTIG]
!!!fkt: Arbeitslied, Brautwerbung
!! IRISCHE V
!! PR[27] 2K[2] 2G[10] 3K[3] 3G[5] 4A[5] 4Ü[0] 5A[0] 6K[0] 6G[0]
!! 7K[0] 7G[2] 8A[0] MEHR[0] SI[27] ABS[59] SR[12] SP[15]
!! ST[16] 2k[5] 2g[31] 3k[7] 3g[3] 4d[0] 4ü[0] 5d[0] 6k[0] 6g[0]
!! 7k[0] 7g[0] 8d[0] mehr[0] si[46] dm[-19] sr[36] sp[10]
!! 1F[43] 2F[57] 3F[0] 4F[0] LF[0] 2P[0] 3P[0] 4P[0] TRI[0] DF[2] AB[61]
!! TF[0] U3K[0] U3[0] U4[0] U4Ü[0] U5[0] U6K[0] U6[0] U7K[0] U7[0]
!! N1[13] N2K[0] N2[8] N3K[0] N3[12] N4[0] N4Ü[0] N5[22] N6K[0] N6[13]
!!!n7k: 0] N7[8] O1[17] O2K[0] O2[3] O3K[0] O3[3] HÖ[0
!!!RNB: symbol: &oacute;= o acute  (UTF-8: Ã³)
